X:1
T:Title
%%score { ( 1 3 ) | ( 2 4 ) }
L:1/8
M:4/4
K:Eb
V:1 treble nm="Grand Piano"
V:3 treble 
V:2 bass 
V:4 bass 
V:1
 z4 z2[Q:1/4=100] G>F | E2 E2 E2 E>G | B2 c2 B2 B>G | [DF]2 [DF]2 [B,F]2 [B,E][DF] | %4
[M:2/4] [EG]2 [EG]2 |[M:5/8] [DF]3 [DG]>[DF] |[M:4/4] E2 E2 E2 E>G | B2 c2 B2 G>[GB] | %8
 [Ge]3 [GB] .[EG]2 F-[B,F] |[M:3/4] E6 |[M:1/4] [GB]>[GB] |[M:4/4] c4 e2 d>c | [GB]4 G2 GG | %13
 [DF]2 [DF]2 F2 EF |[M:2/4] G2 [GB]2 | [GB]2 [GB]>[GB] |[M:4/4] c4 e2 d>c | %17
[M:9/8] [GB]3- [GB] [Ge]2- [Ge] [EAc]2 |[M:4/4] [EGB]3 [B,EG] [B,DG]2 [A,B,F]2 |[M:3/4] [G,B,E]6 |] %20
V:2
 z4 z2 [E,B,E]>[E,A,E] | [E,G,B,]2 [E,A,C]2 [E,G,B,]2 [E,G,B,]>[E,B,E] | %2
 [E,G,E]2 [E,A,E]2 [E,G,E]2 [E,G,E]>[E,B,E] | [B,,B,]2 [B,,B,]2 [B,,A,]2 [B,,G,][B,,B,] | %4
[M:2/4] [E,B,]2 [E,B,]2 |[M:5/8] [B,,B,]3 [B,,B,]>[B,,A,] | %6
[M:4/4] [E,G,]2 [E,A,C]2 [E,G,B,]2 [E,G,]>[E,B,E] | [E,G,E]2 [E,A,E]2 [E,G,E]2 [E,B,E]>[E,B,] | %8
 [E,B,]3 E, B,B, z A, |[M:3/4] [E,G,B,]6 |[M:1/4] [E,E]>[E,E] | %11
[M:4/4][K:treble] [A,EA]4 [A,CA]2 [A,DA]>[A,EA] | [E,E]4 [E,B,E]2 [E,B,E][E,B,E] | %13
 [B,,B,]2 [B,,B,]2 [B,,A,B,]2 [G,B,][B,D] |[M:2/4] [E,B,E]2 [E,E]2 | [E,E]2 [E,E]>[E,E] | %16
[M:4/4][K:treble] [A,EA]4 [A,CA]2 [A,DA]>[A,EA] | %17
[M:9/8][K:bass] [E,E]3- [E,E] [E,B,]2- [E,B,] A,,2 |[M:4/4] B,,3 B,, B,,2 B,,2 |[M:3/4] E,6 |] %20
V:3
 x8 | x8 | x8 | x8 |[M:2/4] x4 |[M:5/8] x5 |[M:4/4] x8 | x8 | z4 z2 .[B,D]2 |[M:3/4] x6 | %10
[M:1/4] x2 |[M:4/4] x8 | x8 | x8 |[M:2/4] x4 | x4 |[M:4/4] x8 |[M:9/8] x9 |[M:4/4] x8 | %19
[M:3/4] x6 |] %20
V:4
 x8 | x8 | x8 | x8 |[M:2/4] x4 |[M:5/8] x5 |[M:4/4] x8 | x8 | z4 z2 B,,2 |[M:3/4] x6 |[M:1/4] x2 | %11
[M:4/4][K:treble] x8 | x8 | z4 z2 B,,2 |[M:2/4] x4 | x4 |[M:4/4][K:treble] x8 |[M:9/8][K:bass] x9 | %18
[M:4/4] x8 |[M:3/4] x6 |] %20

